modules/ROOT/images/icons/contrast.svg

<?xml version="1.0" encoding="UTF-8"?>
<svg width="24px" height="24px" viewBox="0 0 24 24" version="1.1" xmlns="http://www.w3.org/2000/svg" xmlns:xlink="http://www.w3.org/1999/xlink">
    <!-- Generator: Sketch 51.2 (57519) - http://www.bohemiancoding.com/sketch -->
    <title>icon-contrast</title>
    <desc>Created with Sketch.</desc>
    <defs></defs>
    <g stroke="none" stroke-width="1" fill="none" fill-rule="evenodd">
        <path d="M12,4 C13.1041722,4 14.1406202,4.20833125 15.109375,4.625 C16.0885466,5.04166875 16.9401005,5.61197555 17.6640625,6.3359375 C18.3880245,7.05989945 18.9583313,7.91145344 19.375,8.890625 C19.7916687,9.85937984 20,10.8958278 20,12 C20,13.1041722 19.7916687,14.1406202 19.375,15.109375 C18.9583313,16.0885466 18.3880245,16.9401005 17.6640625,17.6640625 C16.9401005,18.3880245 16.0885466,18.9583313 15.109375,19.375 C14.1406202,19.7916687 13.1041722,20 12,20 C10.8958278,20 9.85937984,19.7916687 8.890625,19.375 C7.91145344,18.9583313 7.05989945,18.3880245 6.3359375,17.6640625 C5.61197555,16.9401005 5.04166875,16.0885466 4.625,15.109375 C4.20833125,14.1406202 4,13.1041722 4,12 C4,10.8958278 4.20833125,9.85937984 4.625,8.890625 C5.04166875,7.91145344 5.61197555,7.05989945 6.3359375,6.3359375 C7.05989945,5.61197555 7.91145344,5.04166875 8.890625,4.625 C9.85937984,4.20833125 10.8958278,4 12,4 Z M6,12 C6,12.8333375 6.15624844,13.6093714 6.46875,14.328125 C6.78125156,15.0572953 7.21093477,15.6953098 7.7578125,16.2421875 C8.30469023,16.7890652 8.94270469,17.2187484 9.671875,17.53125 C10.3906286,17.8437516 11.1666625,18 12,18 L12,6 C11.1666625,6 10.3906286,6.15624844 9.671875,6.46875 C8.94270469,6.78125156 8.30469023,7.21093477 7.7578125,7.7578125 C7.21093477,8.30469023 6.78125156,8.94270469 6.46875,9.671875 C6.15624844,10.3906286 6,11.1666625 6,12 Z" fill="#000000"></path>
    </g>
</svg>

<svg xmlns="http://www.w3.org/2000/svg" width="24" height="24" fill="none" viewBox="0 0 24 24">
  <path fill="#222F3E" fill-rule="evenodd" d="M12 4c1.104 0 2.14.208 3.11.625.979.417 1.83.987 2.554 1.71a8.006 8.006 0 0 1 1.711 2.556c.417.968.625 2.005.625 3.109s-.208 2.14-.625 3.11a8.007 8.007 0 0 1-1.71 2.554 8.007 8.007 0 0 1-2.556 1.711A7.785 7.785 0 0 1 12 20a7.785 7.785 0 0 1-3.11-.625 8.006 8.006 0 0 1-2.554-1.71 8.006 8.006 0 0 1-1.711-2.556A7.785 7.785 0 0 1 4 12c0-1.104.208-2.14.625-3.11a8.023 8.023 0 0 1 1.71-2.554 8.005 8.005 0 0 1 2.556-1.711A7.785 7.785 0 0 1 12 4Zm-6 8c0 .833.156 1.61.469 2.328.312.73.742 1.367 1.289 1.914a6.047 6.047 0 0 0 1.914 1.29A5.773 5.773 0 0 0 12 18V6c-.833 0-1.61.156-2.328.469a6.048 6.048 0 0 0-1.914 1.289 6.048 6.048 0 0 0-1.29 1.914A5.775 5.775 0 0 0 6 12Z"/>
</svg>
